src/main/resources/img/expui/tools/SessionBrowser_dark.svg

<svg width="16" height="16" version="1.1" viewBox="0 0 16 16"  xmlns="http://www.w3.org/2000/svg"><g transform="translate(.0039002 .0039002)"><path transform="translate(15,-12.5)" d="m-3.5 22v2l1.9827 1" fill="none" stroke="#ced0d6" stroke-linecap="round" stroke-linejoin="round"/><path d="m11.502 7.0039a4.4939 4.4962 0 0 0-4.4941 4.4961 4.4939 4.4962 0 0 0 4.4941 4.4961 4.4939 4.4962 0 0 0 4.4941-4.4961 4.4939 4.4962 0 0 0-4.4941-4.4961zm0 0.99609a3.4978 3.4997 0 0 1 3.498 3.5 3.4978 3.4997 0 0 1-3.498 3.5 3.4978 3.4997 0 0 1-3.498-3.5 3.4978 3.4997 0 0 1 3.498-3.5z" fill="#ced0d6" stroke-width="1.082"/></g><path d="m5.5 1c-1.9508-3.339e-5 -5.5 0.28974-5.5 2v8.9902c0 1.5127 3.125 2.0129 5.5 2.0098 0.004478-6e-6 0.0091886 1e-5 0.013672 0a6.5 6.4922 0 0 1-0.32227-1.0059c-2.3534-0.046754-4.1914-0.61459-4.1914-1.0938v-1.7012s0.91566 0.72937 4.0371 0.79688a6.5 6.4922 0 0 1 0.15625-1.002c-2.3543-0.046478-4.1934-0.61445-4.1934-1.0938v-1.7051s1 0.80469 4.5 0.80469c0.18536 0 0.3597-0.003542 0.53125-0.0078125a6.5 6.4922 0 0 1 0.87109-1.0566c-0.44095 0.040961-0.91149 0.064453-1.4023 0.064453-2.5 0-4.5-0.59961-4.5-1.0996v-1.7051s1 0.80469 4.5 0.80469c3.5 0 4.5-0.80469 4.5-0.80469v1.0039a6.5 6.4922 0 0 1 1-0.15625v-2.043c0-1.6-3.5492-2-5.5-2zm0 1c2.4853 0 4.5 0.4 4.5 1s-2.0147 1-4.5 1-4.5-0.4-4.5-1 2.0147-1 4.5-1z" fill="#ced0d6"/></svg>

<svg width="16" height="16" xmlns="http://www.w3.org/2000/svg"><path d="M11.504 9.504v2l1.983 1" fill="none" stroke="#ced0d6" stroke-linecap="round" stroke-linejoin="round"/><path d="M11.506 7.008a4.494 4.496 0 0 0-4.494 4.496A4.494 4.496 0 0 0 11.506 16 4.494 4.496 0 0 0 16 11.504a4.494 4.496 0 0 0-4.494-4.496zm0 .996a3.498 3.5 0 0 1 3.498 3.5 3.498 3.5 0 0 1-3.498 3.5 3.498 3.5 0 0 1-3.498-3.5 3.498 3.5 0 0 1 3.498-3.5z" fill="#ced0d6"/><path d="M5.5 1C3.55 1 0 1.29 0 3v8.99c0 1.513 3.125 2.013 5.5 2.01h.014a6.5 6.492 0 0 1-.323-1.006C2.838 12.947 1 12.38 1 11.9v-1.7s.916.728 4.037.796a6.5 6.492 0 0 1 .156-1.002C2.84 9.948 1 9.38 1 8.9V7.195S2 8 5.5 8c.185 0 .36-.004.531-.008a6.5 6.492 0 0 1 .871-1.057A15.2 15.2 0 0 1 5.5 7C3 7 1 6.4 1 5.9V4.195S2 5 5.5 5s4.5-.805 4.5-.805V5.2a6.5 6.492 0 0 1 1-.156V3c0-1.6-3.55-2-5.5-2zm0 1c2.485 0 4.5.4 4.5 1S7.985 4 5.5 4 1 3.6 1 3s2.015-1 4.5-1z" fill="#ced0d6"/></svg>
